dist/assets/img/features/1.svg

<svg width="40" height="44" viewBox="0 0 40 44" fill="none" xmlns="http://www.w3.org/2000/svg">
<path fill-rule="evenodd" clip-rule="evenodd" d="M13.3333 0.692261C13.8856 0.692261 14.3333 1.13998 14.3333 1.69226V3.57745C16.0265 3.44235 17.9089 3.38457 20 3.38457C22.0911 3.38457 23.9735 3.44235 25.6667 3.57745V1.69226C25.6667 1.13998 26.1144 0.692261 26.6667 0.692261C27.219 0.692261 27.6667 1.13998 27.6667 1.69226V3.7855C35.9852 4.87771 39.013 8.46084 39.7839 17.6153C39.8114 17.9416 39.836 18.2748 39.8579 18.6153C39.8789 18.9415 39.8973 19.2743 39.9134 19.6138C39.9732 20.8778 40 22.2351 40 23.6923C40 40.4156 36.47 44 20 44C3.53 44 0 40.4156 0 23.6923C0 22.2351 0.0267989 20.8778 0.0866214 19.6138C0.102691 19.2743 0.121144 18.9415 0.142101 18.6153C0.163978 18.2748 0.188584 17.9416 0.216056 17.6153C0.986994 8.46084 4.01483 4.87771 12.3333 3.7855V1.69226C12.3333 1.13998 12.781 0.692261 13.3333 0.692261ZM12.3333 5.80458C9.47627 6.20301 7.48967 6.8996 6.07039 7.95611C3.92992 9.54947 2.69311 12.2879 2.22351 17.6153H37.7765C37.3069 12.2879 36.0701 9.54947 33.9296 7.95611C32.5103 6.8996 30.5237 6.20301 27.6667 5.80458V8.46149C27.6667 9.01378 27.219 9.46149 26.6667 9.46149C26.1144 9.46149 25.6667 9.01378 25.6667 8.46149V5.58551C24.0284 5.44892 22.1525 5.38457 20 5.38457C17.8475 5.38457 15.9716 5.44892 14.3333 5.58551V8.46149C14.3333 9.01378 13.8856 9.46149 13.3333 9.46149C12.781 9.46149 12.3333 9.01378 12.3333 8.46149V5.80458ZM38 23.6923C38 22.2216 37.9722 20.8659 37.9111 19.6153H2.08886C2.02778 20.8659 2 22.2216 2 23.6923C2 27.8282 2.2208 31.0172 2.76266 33.4929C3.2999 35.9475 4.12573 37.5737 5.24872 38.714C7.53536 41.0358 11.6937 42 20 42C28.3063 42 32.4646 41.0358 34.7513 38.714C35.8743 37.5737 36.7001 35.9475 37.2373 33.4929C37.7792 31.0172 38 27.8282 38 23.6923Z" fill="white"/>
</svg>

<svg width="40" height="44" fill="none" xmlns="http://www.w3.org/2000/svg"><path fill-rule="evenodd" clip-rule="evenodd" d="M13.333.692a1 1 0 011 1v1.885c1.693-.135 3.576-.192 5.667-.192 2.091 0 3.974.057 5.667.192V1.692a1 1 0 112 0v2.093c8.318 1.093 11.346 4.676 12.117 13.83a50.527 50.527 0 01.13 1.999c.06 1.264.086 2.621.086 4.078C40 40.416 36.47 44 20 44S0 40.416 0 23.692a86.7 86.7 0 01.087-4.078 59.336 59.336 0 01.13-1.999c.77-9.154 3.798-12.737 12.116-13.83V1.692a1 1 0 011-1zm-1 5.113C9.476 6.203 7.49 6.9 6.07 7.956c-2.14 1.593-3.377 4.332-3.846 9.66h35.553c-.47-5.328-1.707-8.067-3.847-9.66-1.42-1.056-3.406-1.753-6.263-2.151V8.46a1 1 0 11-2 0V5.586c-1.639-.137-3.515-.201-5.667-.201-2.152 0-4.028.064-5.667.2v2.876a1 1 0 11-2 0V5.805zM38 23.692c0-1.47-.028-2.826-.089-4.077H2.09A84.042 84.042 0 002 23.692c0 4.136.22 7.325.763 9.8.537 2.456 1.363 4.082 2.486 5.222C7.535 41.036 11.694 42 20 42s12.465-.964 14.751-3.286c1.123-1.14 1.95-2.767 2.486-5.221.542-2.476.763-5.665.763-9.8z" fill="#fff"/></svg>
